X:1
T:Title
%%score { ( 1 2 4 ) | ( 3 5 ) }
L:1/8
Q:1/4=143
M:12/8
K:C
V:1 treble nm="Grand Piano"
V:2 treble 
V:4 treble 
V:3 bass 
V:5 bass 
V:1
 F6 z6 | z6 c6 | A6 z6 | z6 A6 | F6 z6 | z6 .c6 | cde f2 A z3 z _BG |[M:9/8] F6 z3 | %8
w: Charles~Gounod||||||||
[M:6/4] .[EG]12 | .[EG]12 | [EG]2 c [Ed]2 c [Ee]2 B [Ec]2 A | .[FA]6 z2 G [FA]2 G | .[EG]12 | %13
w: |||||
 z6 z2 A [GB]2 c | [^Fd]2 [Fc] [FB]2 [FA] [F^G]2 [FA] [Fc]2 F | G12 | .[EG]12 | .[EG]12 | %18
w: |||||
 [EG]2 [Ec] [Ed]2 [Ec] [Ee]2 [EB] [Ec]2 [EA] | .[FA]6 z2 G [FA]2 [FG] | .[EG]12 | %21
w: |||
 [_B,CG]3 A,3 z2 c B2 A | A2 G A2 G A2 G A2 G | d2 c B2 A G2 F[K:bass] [G,CE]2 [F,B,D] | %24
w: |||
[M:27/16] [E,C]/-[E,C]/-[E,C]/-[E,C]/-[E,C]/-[E,C]/-[E,C]/-[E,C]/-[E,C]/-[E,C]/-[E,C]/-[E,C]/-[E,C]/-[E,C]/-[E,C]/-[E,C]/-[E,C]/-[E,C]-<[E,C] z/ z/ z/ z/ z | %25
w: |
[M:6/4][K:treble] F6 z6 | z6 c6 | A6 z6 | z6 A6 | F6 z6 | z6 .c6 | cde f2 A z4 _BG | %32
w: |||||||
[M:17/8] F-F-F- F3 z z z z z z z z z z2 |] %33
w: |
V:2
 z3 A,3 C3 F3 | GAF G2 G z3 G,3 | z3 A,3 F3 D3 | EFD E2 E z3 A,3 | z3 A,3 C3 F3 | %5
 GAF G2 G z3 z2 c | z6 .c6 |[M:9/8] z3 [A,C]3 z3 |[M:6/4] .G,6 z2 ^F [EG]2 A | .G,6 z2 ^F [EG]2 A | %10
 x12 | z2 z [FG]3- [FG]2 z2 z2 | .G,6 z2 ^F [EG]2 A | .[GB]12 | x12 | B,6 F6 | %16
 G,3 G,3 z2 ^F [EG]2 [EA] | z2 z G,3 z2 ^F [EG]2 [EA] | x12 | z2 z [FG]3- [FG]2 z2 z2 | %20
 z2 z G,3 z2 ^F [EG]2 A | z2 z [CF]3- [CF]2 z2 z2 | x12 | x9[K:bass] x3 |[M:27/16] x27/2 | %25
[M:6/4][K:treble] z2 z A,3 C3 F3 | GAF G2 G z2 z G,3 | z2 z A,3 F3 D3 | EFD E2 E z2 z A,3 | %29
 z2 z A,3 C3 F3 | GAF G2 G z2 z2 z c | z6 .c6 |[M:17/8] z z2 [A,C]3 z z z z z z z z z z2 |] %33
V:3
 F,,3 [C,F,]3 F,,3 [C,F,A,]3 | C,3 [C,E,G,]3 C,3 [C,E,]3 | F,,3 [C,F,]3 D,3 [D,F,A,]3 | %3
 A,,3 [^C,E,A,]3 A,,3 [C,E,]3 | F,,3 [C,F,]3 F,,3 [C,F,A,]3 | C,3 [C,E,G,]3 C,3 [C,E,]3 | %6
 F,,3 [D,F,A,]3 C,3 [C,E,G,]3 |[M:9/8] [F,A,]2 C, D,C,A,, F,,3 |[M:6/4] C,3 G,,3 z2 .E3 E | %9
 C,3 G,,3 z2 .E3 E | z2 .E3 E z2 .E3 E | [D,G,]3 G,,3 z2 .F3 F | C,3 G,,3 z2 .E3 E | %13
 [D,G,]3 G,,3 z2 .G3 G | [D,A,]3 [D,A,]3 [D,C]4 z C | G,,2 A,, B,,2 C, D,2 E, F,2 G, | %16
 C,3 G,,3 z2 E [G,,G,]3 | [C,G,]3 G,,3 z2 E [G,,G,]3 | [C,G,]3 [G,,G,]3 [C,G,]3 [G,,G,]3 | %19
 [D,G,]3 [G,,G,]3 z2 F [G,,G,]3 | [C,G,]3 C,3 z2 .E3 E | F,3 F,3 z2 C D2[K:treble] _E | %22
 E2 E E2 E E2 E E2 E | F2 F F2 F E2 D[K:bass] G,,2 G,, | %24
[M:27/16] z/ z/ z/ z/ z/ z/ z/ z/ z/ z/ z _B,/-B,/-B,/-B,/-B,/-B,-<B, z/ z/ z/ z/ z | %25
[M:6/4] F,,3 [C,F,]3 F,,3 [C,F,A,]3 | C,3 [C,E,G,]3 C,3 [C,E,]3 | F,,3 [C,F,]3 D,3 [D,F,A,]3 | %28
 A,,3 [^C,E,A,]3 A,,3 [C,E,]3 | F,,3 [C,F,]3 F,,3 [C,F,A,]3 | C,3 [C,E,G,]3 C,3 [C,E,]3 | %31
 F,,3 [D,F,A,]3 C,3 [C,E,G,]3 |[M:17/8] [F,A,]2 C,D,C,A,, F,,3 z z z z z z z2 |] %33
V:4
 x12 | x12 | x12 | x12 | x12 | z6 z3 G,3 | z6 z3 _B,3 |[M:9/8] x9 |[M:6/4] z6 .G,6 | z6 .G,6 | %10
 x12 | z6 .G,6 | z6 .G,6 | z6 .G,6 | x12 | x12 | z6 .G,6 | z6 .G,6 | x12 | z6 .G,6 | z6 ._B,6 | %21
 z6 .A,6 | x12 | x9[K:bass] x3 |[M:27/16] x27/2 |[M:6/4][K:treble] x12 | x12 | x12 | x12 | x12 | %30
 z6 z2 z G,3 | z6 z2 z _B,3 |[M:17/8] x17 |] %33
V:5
 x12 | x12 | x12 | x12 | x12 | x12 | x12 |[M:9/8] x9 |[M:6/4] z6 C,3 G,,3 | z6 C,3 G,,3 | %10
 [C,G,]3 G,,3 [C,G,]3 G,,3 | z6 D,3 G,,3 | z6 C,3 G,,3 | z6 D,3 G,,3 | z6 z2 z [D,A,]3 | x12 | %16
 z6 .C,6 | z6 .C,6 | x12 | z6 .D,6 | z6 C,3 [C,_B,]3 | z6 F,3 [F,A,]3[K:treble] | %22
 [G,C]3 [G,C]3 [G,C]3 [G,C]3 | [G,B,]3 [G,B,]3 .[G,B,]6[K:bass] | %24
[M:27/16] C,/-C,/-C,/-C,/-C,/-C,/-C,/-C,/-C,/-C,/-C,/-C,/-C,/-C,/-C,/-C,/-C,/-C,-<C, z/ z/ z/ z/ z | %25
[M:6/4] x12 | x12 | x12 | x12 | x12 | x12 | x12 |[M:17/8] x17 |] %33

